public/img/list.svg

<svg width="20" height="18" viewBox="0 0 20 18" fill="none" xmlns="http://www.w3.org/2000/svg">
<path d="M2.7027 6.1875L5.40541 11.25H0L2.7027 6.1875ZM0.540541 0H4.86486V4.5H0.540541V0ZM2.7027 18C3.27614 18 3.8261 17.7629 4.23158 17.341C4.63707 16.919 4.86486 16.3467 4.86486 15.75C4.86486 15.1533 4.63707 14.581 4.23158 14.159C3.8261 13.7371 3.27614 13.5 2.7027 13.5C2.12926 13.5 1.57931 13.7371 1.17382 14.159C0.768339 14.581 0.540541 15.1533 0.540541 15.75C0.540541 16.3467 0.768339 16.919 1.17382 17.341C1.57931 17.7629 2.12926 18 2.7027 18ZM7.02703 1.125V3.375H20V1.125H7.02703ZM7.02703 16.875H20V14.625H7.02703V16.875ZM7.02703 10.125H20V7.875H7.02703V10.125Z" fill="#08A6BB"/>
</svg>

<svg width="20" height="18" fill="none" xmlns="http://www.w3.org/2000/svg"><path d="M2.703 6.188l2.702 5.062H0l2.703-5.063zM.54 0h4.324v4.5H.54V0zm2.162 18a2.12 2.12 0 001.529-.659c.405-.422.633-.994.633-1.591s-.228-1.169-.633-1.591a2.12 2.12 0 00-1.53-.659 2.12 2.12 0 00-1.528.659A2.297 2.297 0 00.54 15.75c0 .597.227 1.169.633 1.591a2.12 2.12 0 001.53.659zM7.027 1.125v2.25H20v-2.25H7.027zm0 15.75H20v-2.25H7.027v2.25zm0-6.75H20v-2.25H7.027v2.25z" fill="#08A6BB"/></svg>
